Newaita-dark/devices/48/pda.svg

<svg height="48pt" viewBox="0 0 48 48" width="48pt" xmlns="http://www.w3.org/2000/svg" xmlns:xlink="http://www.w3.org/1999/xlink"><linearGradient id="a" gradientUnits="userSpaceOnUse" x1="23.81478" x2="23.81478" y1="42.0509045" y2="44.03547050005"><stop offset="0" stop-opacity=".27451"/><stop offset="1" stop-opacity="0"/></linearGradient><linearGradient id="b"><stop offset="0" stop-opacity=".313725"/><stop offset=".222222" stop-opacity=".27451"/><stop offset="1" stop-opacity="0"/></linearGradient><radialGradient id="c" cx="450.908936" cy="189.579361" gradientTransform="matrix(.00000026 -.117199 -.210958 -.00000015 73.234562 95.392999)" gradientUnits="userSpaceOnUse" r="21.166656" xlink:href="#b"/><radialGradient id="d" cx="450.908936" cy="189.579361" gradientTransform="matrix(-.00000026 .117199 .210958 .00000015 -25.605013 -11.291218)" gradientUnits="userSpaceOnUse" r="21.166656" xlink:href="#b"/><radialGradient id="e" cx="450.908936" cy="189.579361" gradientTransform="matrix(-.00000026 -.117199 .210958 -.00000015 -25.605013 95.392999)" gradientUnits="userSpaceOnUse" r="21.166656" xlink:href="#b"/><radialGradient id="f" cx="450.908936" cy="189.579361" gradientTransform="matrix(.00000026 .117199 -.210958 .00000015 73.234559 -11.291219)" gradientUnits="userSpaceOnUse" r="21.166656" xlink:href="#b"/><linearGradient id="g" gradientTransform="matrix(.113024 0 0 .326118 -8.78102 50.462022)" gradientUnits="userSpaceOnUse" x1="306.916656" x2="305.954559" y1="-25.791676" y2="-141.414581"><stop offset="0" stop-color="#757575"/><stop offset="1" stop-color="#9e9e9e"/></linearGradient><linearGradient id="h" gradientUnits="userSpaceOnUse" x1="254" x2="254" y1="170" y2="-147.5"><stop offset="0" stop-color="#424242"/><stop offset="1" stop-color="#616161"/></linearGradient><path d="m13.890625 42.050781h19.847656v1.984375h-19.847656zm0 0" fill="url(#a)"/><path d="m33.738281 42.050781h3.96875v-1.984375h-3.96875zm0 0" fill="url(#c)"/><path d="m13.890625 42.050781h-3.96875v1.984375h3.96875zm0 0" fill="url(#d)"/><path d="m13.890625 42.050781h-3.96875v-1.984375h3.96875zm0 0" fill="url(#e)"/><path d="m33.738281 42.050781h3.96875v1.984375h-3.96875zm0 0" fill="url(#f)"/><path d="m13.890625 4.34375h19.847656c2.191407 0 3.96875 1.777344 3.96875 3.96875v29.769531c0 2.191407-1.777343 3.96875-3.96875 3.96875h-19.847656c-2.191406 0-3.96875-1.777343-3.96875-3.96875v-29.769531c0-2.191406 1.777344-3.96875 3.96875-3.96875zm0 0" fill="url(#g)"/><g stroke="#212121" stroke-linecap="round" stroke-width="3" transform="matrix(.093759 0 0 .093759 0 20.158175)"><path d="m148.152519-147.506445h211.688118c11.665553 0 21.164645 9.499093 21.164645 21.164645v232.852764c0 11.665553-9.499092 21.164645-21.164645 21.164645h-211.688118c-11.665553 0-21.164646-9.499092-21.164646-21.164645v-232.852764c0-11.665552 9.499093-21.164645 21.164646-21.164645zm0 0" fill="url(#h)"/><path d="m211.646455-163.379929h84.700245c2.916388 0 5.291162 2.374773 5.291162 5.291161s-2.374774 5.291161-5.291162 5.291161h-84.700245c-2.916388 0-5.291161-2.374773-5.291161-5.291161s2.374773-5.291161 5.291161-5.291161zm0 0" fill="#616161" fill-opacity=".27451"/><path d="m254.017409 159.422578c11.665553 0 21.164646 9.45743 21.164646 21.164645 0 11.665553-9.499093 21.164646-21.164646 21.164646-11.707215 0-21.164645-9.499093-21.164645-21.164646 0-11.707215 9.45743-21.164645 21.164645-21.164645zm0 0" fill="#616161" fill-opacity=".27451"/></g><path d="m13.890625 4.34375c-2.199219 0-3.96875 1.769531-3.96875 3.96875v.496094c0-2.199219 1.769531-3.96875 3.96875-3.96875h19.847656c2.199219 0 3.96875 1.769531 3.96875 3.96875v-.496094c0-2.199219-1.769531-3.96875-3.96875-3.96875zm0 0" fill="#fff" fill-opacity=".392157"/><path d="m13.890625 42.050781c-2.199219 0-3.96875-1.769531-3.96875-3.96875v-.496093c0 2.199218 1.769531 3.96875 3.96875 3.96875h19.847656c2.199219 0 3.96875-1.769532 3.96875-3.96875v.496093c0 2.199219-1.769531 3.96875-3.96875 3.96875zm0 0" fill-opacity=".235294"/><path d="m148.152519-168.671091h211.688118c23.372768 0 42.329291 18.956523 42.329291 42.329291v317.511346c0 23.372768-18.956523 42.329291-42.329291 42.329291h-211.688118c-23.372768 0-42.329291-18.956523-42.329291-42.329291v-317.511346c0-23.372768 18.956523-42.329291 42.329291-42.329291zm0 0" fill="none" stroke="#212121" stroke-linecap="round" stroke-width="3" transform="matrix(.093759 0 0 .093759 0 20.158175)"/><path d="m338.675991 159.422578c11.665553 0 21.164646 9.45743 21.164646 21.164645 0 11.665553-9.499093 21.164646-21.164646 21.164646-11.707215 0-21.164645-9.499093-21.164645-21.164646 0-11.707215 9.45743-21.164645 21.164645-21.164645zm0 0" fill="#616161" fill-opacity=".27451" stroke="#212121" stroke-linecap="round" stroke-width="3" transform="matrix(.093759 0 0 .093759 0 20.158175)"/><path d="m169.317164 159.422578c11.707216 0 21.164646 9.45743 21.164646 21.164645 0 11.665553-9.45743 21.164646-21.164646 21.164646-11.665552 0-21.164645-9.499093-21.164645-21.164646 0-11.707215 9.499093-21.164645 21.164645-21.164645zm0 0" fill="#616161" fill-opacity=".27451" stroke="#212121" stroke-linecap="round" stroke-width="3" transform="matrix(.093759 0 0 .093759 0 20.158175)"/></svg>

<?xml version="1.0" encoding="UTF-8"?>
<svg xmlns="http://www.w3.org/2000/svg" xmlns:xlink="http://www.w3.org/1999/xlink" width="48pt" height="48pt" viewBox="0 0 48 48" version="1.1">
<defs>
<linearGradient id="linear0" gradientUnits="userSpaceOnUse" x1="254" y1="233.5" x2="254" y2="254.666672" gradientTransform="matrix(0.093759,0,0,0.093759,-0.00000572259,20.158178)">
<stop offset="0" style="stop-color:rgb(0%,0%,0%);stop-opacity:0.27451;"/>
<stop offset="1" style="stop-color:rgb(0%,0%,0%);stop-opacity:0;"/>
</linearGradient>
<radialGradient id="radial0" gradientUnits="userSpaceOnUse" cx="450.908936" cy="189.579361" fx="450.908936" fy="189.579361" r="21.166656" gradientTransform="matrix(0.000000261256,-0.117199,-0.210958,-0.000000152308,73.234562,95.392999)">
<stop offset="0" style="stop-color:rgb(0%,0%,0%);stop-opacity:0.313725;"/>
<stop offset="0.222222" style="stop-color:rgb(0%,0%,0%);stop-opacity:0.27451;"/>
<stop offset="1" style="stop-color:rgb(0%,0%,0%);stop-opacity:0;"/>
</radialGradient>
<radialGradient id="radial1" gradientUnits="userSpaceOnUse" cx="450.908936" cy="189.579361" fx="450.908936" fy="189.579361" r="21.166656" gradientTransform="matrix(-0.000000261256,0.117199,0.210958,0.000000152308,-25.605013,-11.291218)">
<stop offset="0" style="stop-color:rgb(0%,0%,0%);stop-opacity:0.313725;"/>
<stop offset="0.222222" style="stop-color:rgb(0%,0%,0%);stop-opacity:0.27451;"/>
<stop offset="1" style="stop-color:rgb(0%,0%,0%);stop-opacity:0;"/>
</radialGradient>
<radialGradient id="radial2" gradientUnits="userSpaceOnUse" cx="450.908936" cy="189.579361" fx="450.908936" fy="189.579361" r="21.166656" gradientTransform="matrix(-0.000000261256,-0.117199,0.210958,-0.000000152308,-25.605013,95.392999)">
<stop offset="0" style="stop-color:rgb(0%,0%,0%);stop-opacity:0.313725;"/>
<stop offset="0.222222" style="stop-color:rgb(0%,0%,0%);stop-opacity:0.27451;"/>
<stop offset="1" style="stop-color:rgb(0%,0%,0%);stop-opacity:0;"/>
</radialGradient>
<radialGradient id="radial3" gradientUnits="userSpaceOnUse" cx="450.908936" cy="189.579361" fx="450.908936" fy="189.579361" r="21.166656" gradientTransform="matrix(0.000000261256,0.117199,-0.210958,0.000000152308,73.234559,-11.291219)">
<stop offset="0" style="stop-color:rgb(0%,0%,0%);stop-opacity:0.313725;"/>
<stop offset="0.222222" style="stop-color:rgb(0%,0%,0%);stop-opacity:0.27451;"/>
<stop offset="1" style="stop-color:rgb(0%,0%,0%);stop-opacity:0;"/>
</radialGradient>
<linearGradient id="linear1" gradientUnits="userSpaceOnUse" x1="306.916656" y1="-25.791676" x2="305.954559" y2="-141.414581" gradientTransform="matrix(0.113024,0,0,0.326118,-8.78102,50.462022)">
<stop offset="0" style="stop-color:rgb(45.882353%,45.882353%,45.882353%);stop-opacity:1;"/>
<stop offset="1" style="stop-color:rgb(61.960784%,61.960784%,61.960784%);stop-opacity:1;"/>
</linearGradient>
<linearGradient id="linear2" gradientUnits="userSpaceOnUse" x1="254" y1="170" x2="254" y2="-147.5" gradientTransform="matrix(1,0,0,1,0,0)">
<stop offset="0" style="stop-color:rgb(25.882353%,25.882353%,25.882353%);stop-opacity:1;"/>
<stop offset="1" style="stop-color:rgb(38.039216%,38.039216%,38.039216%);stop-opacity:1;"/>
</linearGradient>
</defs>
<g id="surface1">
<path style=" stroke:none;fill-rule:nonzero;fill:url(#linear0);" d="M 13.890625 42.050781 L 33.738281 42.050781 L 33.738281 44.035156 L 13.890625 44.035156 Z M 13.890625 42.050781 "/>
<path style=" stroke:none;fill-rule:nonzero;fill:url(#radial0);" d="M 33.738281 42.050781 L 37.707031 42.050781 L 37.707031 40.066406 L 33.738281 40.066406 Z M 33.738281 42.050781 "/>
<path style=" stroke:none;fill-rule:nonzero;fill:url(#radial1);" d="M 13.890625 42.050781 L 9.921875 42.050781 L 9.921875 44.035156 L 13.890625 44.035156 Z M 13.890625 42.050781 "/>
<path style=" stroke:none;fill-rule:nonzero;fill:url(#radial2);" d="M 13.890625 42.050781 L 9.921875 42.050781 L 9.921875 40.066406 L 13.890625 40.066406 Z M 13.890625 42.050781 "/>
<path style=" stroke:none;fill-rule:nonzero;fill:url(#radial3);" d="M 33.738281 42.050781 L 37.707031 42.050781 L 37.707031 44.035156 L 33.738281 44.035156 Z M 33.738281 42.050781 "/>
<path style=" stroke:none;fill-rule:nonzero;fill:url(#linear1);" d="M 13.890625 4.34375 L 33.738281 4.34375 C 35.929688 4.34375 37.707031 6.121094 37.707031 8.3125 L 37.707031 38.082031 C 37.707031 40.273438 35.929688 42.050781 33.738281 42.050781 L 13.890625 42.050781 C 11.699219 42.050781 9.921875 40.273438 9.921875 38.082031 L 9.921875 8.3125 C 9.921875 6.121094 11.699219 4.34375 13.890625 4.34375 Z M 13.890625 4.34375 "/>
<path style="fill-rule:nonzero;fill:url(#linear2);stroke-width:3;stroke-linecap:round;stroke-linejoin:miter;stroke:rgb(12.941177%,12.941177%,12.941177%);stroke-opacity:1;stroke-miterlimit:4;" d="M 148.152519 -147.506445 L 359.840637 -147.506445 C 371.50619 -147.506445 381.005282 -138.007352 381.005282 -126.3418 L 381.005282 106.510964 C 381.005282 118.176517 371.50619 127.675609 359.840637 127.675609 L 148.152519 127.675609 C 136.486966 127.675609 126.987873 118.176517 126.987873 106.510964 L 126.987873 -126.3418 C 126.987873 -138.007352 136.486966 -147.506445 148.152519 -147.506445 Z M 148.152519 -147.506445 " transform="matrix(0.093759,0,0,0.093759,0,20.158175)"/>
<path style="fill-rule:nonzero;fill:rgb(38.039216%,38.039216%,38.039216%);fill-opacity:0.27451;stroke-width:3;stroke-linecap:round;stroke-linejoin:miter;stroke:rgb(12.941177%,12.941177%,12.941177%);stroke-opacity:1;stroke-miterlimit:4;" d="M 211.646455 -163.379929 L 296.3467 -163.379929 C 299.263088 -163.379929 301.637862 -161.005156 301.637862 -158.088768 C 301.637862 -155.17238 299.263088 -152.797607 296.3467 -152.797607 L 211.646455 -152.797607 C 208.730067 -152.797607 206.355294 -155.17238 206.355294 -158.088768 C 206.355294 -161.005156 208.730067 -163.379929 211.646455 -163.379929 Z M 211.646455 -163.379929 " transform="matrix(0.093759,0,0,0.093759,0,20.158175)"/>
<path style="fill-rule:nonzero;fill:rgb(38.039216%,38.039216%,38.039216%);fill-opacity:0.27451;stroke-width:3;stroke-linecap:round;stroke-linejoin:miter;stroke:rgb(12.941177%,12.941177%,12.941177%);stroke-opacity:1;stroke-miterlimit:4;" d="M 254.017409 159.422578 C 265.682962 159.422578 275.182055 168.880008 275.182055 180.587223 C 275.182055 192.252776 265.682962 201.751869 254.017409 201.751869 C 242.310194 201.751869 232.852764 192.252776 232.852764 180.587223 C 232.852764 168.880008 242.310194 159.422578 254.017409 159.422578 Z M 254.017409 159.422578 " transform="matrix(0.093759,0,0,0.093759,0,20.158175)"/>
<path style=" stroke:none;fill-rule:nonzero;fill:rgb(100%,100%,100%);fill-opacity:0.392157;" d="M 13.890625 4.34375 C 11.691406 4.34375 9.921875 6.113281 9.921875 8.3125 L 9.921875 8.808594 C 9.921875 6.609375 11.691406 4.839844 13.890625 4.839844 L 33.738281 4.839844 C 35.9375 4.839844 37.707031 6.609375 37.707031 8.808594 L 37.707031 8.3125 C 37.707031 6.113281 35.9375 4.34375 33.738281 4.34375 Z M 13.890625 4.34375 "/>
<path style=" stroke:none;fill-rule:nonzero;fill:rgb(0%,0%,0%);fill-opacity:0.235294;" d="M 13.890625 42.050781 C 11.691406 42.050781 9.921875 40.28125 9.921875 38.082031 L 9.921875 37.585938 C 9.921875 39.785156 11.691406 41.554688 13.890625 41.554688 L 33.738281 41.554688 C 35.9375 41.554688 37.707031 39.785156 37.707031 37.585938 L 37.707031 38.082031 C 37.707031 40.28125 35.9375 42.050781 33.738281 42.050781 Z M 13.890625 42.050781 "/>
<path style="fill:none;stroke-width:3;stroke-linecap:round;stroke-linejoin:miter;stroke:rgb(12.941177%,12.941177%,12.941177%);stroke-opacity:1;stroke-miterlimit:4;" d="M 148.152519 -168.671091 L 359.840637 -168.671091 C 383.213405 -168.671091 402.169928 -149.714568 402.169928 -126.3418 L 402.169928 191.169546 C 402.169928 214.542314 383.213405 233.498837 359.840637 233.498837 L 148.152519 233.498837 C 124.779751 233.498837 105.823228 214.542314 105.823228 191.169546 L 105.823228 -126.3418 C 105.823228 -149.714568 124.779751 -168.671091 148.152519 -168.671091 Z M 148.152519 -168.671091 " transform="matrix(0.093759,0,0,0.093759,0,20.158175)"/>
<path style="fill-rule:nonzero;fill:rgb(38.039216%,38.039216%,38.039216%);fill-opacity:0.27451;stroke-width:3;stroke-linecap:round;stroke-linejoin:miter;stroke:rgb(12.941177%,12.941177%,12.941177%);stroke-opacity:1;stroke-miterlimit:4;" d="M 338.675991 159.422578 C 350.341544 159.422578 359.840637 168.880008 359.840637 180.587223 C 359.840637 192.252776 350.341544 201.751869 338.675991 201.751869 C 326.968776 201.751869 317.511346 192.252776 317.511346 180.587223 C 317.511346 168.880008 326.968776 159.422578 338.675991 159.422578 Z M 338.675991 159.422578 " transform="matrix(0.093759,0,0,0.093759,0,20.158175)"/>
<path style="fill-rule:nonzero;fill:rgb(38.039216%,38.039216%,38.039216%);fill-opacity:0.27451;stroke-width:3;stroke-linecap:round;stroke-linejoin:miter;stroke:rgb(12.941177%,12.941177%,12.941177%);stroke-opacity:1;stroke-miterlimit:4;" d="M 169.317164 159.422578 C 181.02438 159.422578 190.48181 168.880008 190.48181 180.587223 C 190.48181 192.252776 181.02438 201.751869 169.317164 201.751869 C 157.651612 201.751869 148.152519 192.252776 148.152519 180.587223 C 148.152519 168.880008 157.651612 159.422578 169.317164 159.422578 Z M 169.317164 159.422578 " transform="matrix(0.093759,0,0,0.093759,0,20.158175)"/>
</g>
</svg>
